svg/u1f948.svg

<svg viewBox="0 0 128 128" xmlns="http://www.w3.org/2000/svg">
  <path d="M69.09,4.24c-1.08,0.96-9.48,17.63-9.48,17.63l-6.25,25.21l24.32-2.23c0,0,20.23-37.62,20.64-38.49 c0.73-1.58,1.12-2.23-1.67-2.23C93.86,4.12,70.1,3.34,69.09,4.24z" fill="#176CC7"/>
  <path d="M81.68,43.29c-1.21-0.65-36.85-1.21-37.69,0c-0.76,1.1-0.33,6.87-0.04,7.56 c0.52,1.2,12.03,6.43,12.03,6.43l-0.22,2.38c0,0,0.94,0.24,7.63,0.24s8.01-0.34,8.01-0.34l0.02-2.15c0,0,10.36-5.04,10.88-5.74 C82.74,51.09,82.89,43.94,81.68,43.29z M71.07,52.41c0,0,0.33-1.47-0.36-1.81c-0.69-0.35-12.53-0.19-13.47-0.14 c-0.94,0.05-0.94,1.73-0.94,1.73l-7.6-4.53v-0.74l28.3,0.2l0.05,0.84L71.07,52.41z" fill="#CECDD2"/>
  <path d="M59.26,51.17c-0.94,0-1.48,0.98-1.48,2.67c0,1.58,0.54,2.91,1.73,2.81c0.98-0.08,1.32-1.58,1.23-2.91 C60.65,52.16,60.45,51.17,59.26,51.17z" fill="#FDFFFF"/>
  <path d="M28.97,91.89c0,23.96,22.05,34.13,36.46,33.7c16.79-0.5,34.51-13.24,33.36-36.1 C97.7,67.83,79.33,58.2,63.55,58.31C45.21,58.45,28.97,70.96,28.97,91.89z" fill="#CECDD2"/>
  <path d="M64.53,121.13c-0.25,0-0.51,0-0.76-0.01c-7.5-0.25-14.91-3.41-20.33-8.66 c-5.8-5.62-8.98-13.22-8.94-21.39c0.09-19.95,17.53-29.2,29.36-29.2c0.03,0,0.07,0,0.1,0h0c16.03,0.07,29.19,12.53,29.56,29.42 c0.16,7.52-2.92,15.41-8.96,21.35C78.92,118.17,71.44,121.13,64.53,121.13z M63.84,65.19c-10.61,0-26.3,8.68-26.34,25.88 c-0.03,12.86,9.93,26.08,26.52,26.64c6.32,0.2,12.83-2.22,18.09-7.39c5.46-5.37,8.53-12.29,8.42-18.99 C90.27,76.8,78.39,65.24,63.97,65.17C63.95,65.17,63.87,65.19,63.84,65.19z" fill="#9B9B9D"/>
  <path d="M58.09,61.47c-0.69-0.95-7.76-0.68-15.37,5.87c-7.56,6.51-8.69,13.71-7.33,14.09 c1.55,0.43,3.44-6.53,9.97-12.38C51.36,63.7,59.46,63.36,58.09,61.47z" fill="#FEFFFA"/>
  <path d="M87.88,87.72c-2.41,0.34,0.09,7.56-5.5,15.64c-4.85,7.01-10.35,9.55-9.71,11.09 c0.86,2.06,9.67-3.07,13.75-11.43C90.11,95.46,89.67,87.47,87.88,87.72z" fill="#FEFFFA"/>
  <path d="M25.51,3.72C24.88,4.3,48.97,47.2,48.97,47.2s4.04,0.52,13.06,0.6s13.49-0.52,13.49-0.52 S56.79,4.15,55.67,3.72C55.12,3.5,47.7,3.42,40.45,3.34C33.19,3.25,26.11,3.16,25.51,3.72z" fill="#2E9DF4"/>
  <path d="M56.85,86.35c1.04,0.01,1.97-1.4,2.83-2.26c1.83-1.84,3.75-3.3,5.94-1.32 C71,87.66,60.2,92.62,56.1,99.4c-3.06,5.06-3.68,8.95-2.83,9.99s21.54,0.99,21.82,0.47c0.28-0.52,0.57-7.45,0.09-7.78 s-10.65-0.14-10.65-0.14s0.85-1.98,4.34-5c3.83-3.31,6.9-7.86,6.08-13.24c-1.7-11.12-12.9-11.53-17.75-7.66 C52.47,79.81,53.49,86.31,56.85,86.35z" fill="#9B9B9D"/>
</svg>

<svg viewBox="0 0 128 128" xmlns="http://www.w3.org/2000/svg">
  <defs/>
  <path d="M69.09,4.24 C68.01,5.2 59.61,21.87 59.61,21.87 L53.36,47.08 L77.68,44.85 C77.68,44.85 97.91,7.23 98.32,6.36 C99.05,4.78 99.44,4.13 96.65,4.13 C93.86,4.12 70.1,3.34 69.09,4.24 Z" fill="#176CC7"/>
  <path d="M81.68,43.29 C80.47,42.64 44.83,42.08 43.99,43.29 C43.23,44.39 43.66,50.16 43.95,50.85 C44.47,52.05 55.98,57.28 55.98,57.28 L55.76,59.66 C55.76,59.66 56.7,59.9 63.39,59.9 C70.08,59.9 71.4,59.56 71.4,59.56 L71.42,57.41 C71.42,57.41 81.78,52.37 82.3,51.67 C82.74,51.09 82.89,43.94 81.68,43.29 Z M71.07,52.41 C71.07,52.41 71.4,50.94 70.71,50.6 C70.02,50.25 58.18,50.41 57.24,50.46 C56.3,50.51 56.3,52.19 56.3,52.19 L48.7,47.66 L48.7,46.92 L77,47.12 L77.05,47.96 L71.07,52.41 Z" fill="#CECDD2"/>
  <path d="M59.26,51.17 C58.32,51.17 57.78,52.15 57.78,53.84 C57.78,55.42 58.32,56.75 59.51,56.65 C60.49,56.57 60.83,55.07 60.74,53.74 C60.65,52.16 60.45,51.17 59.26,51.17 Z" fill="#FDFFFF"/>
  <path d="M28.97,91.89 C28.97,115.85 51.02,126.02 65.43,125.59 C82.22,125.09 99.94,112.35 98.79,89.49 C97.7,67.83 79.33,58.2 63.55,58.31 C45.21,58.45 28.97,70.96 28.97,91.89 Z" fill="#CECDD2"/>
  <path d="M64.53,121.13 C64.28,121.13 64.02,121.13 63.77,121.12 C56.27,120.87 48.86,117.71 43.44,112.46 C37.64,106.84 34.46,99.24 34.5,91.07 C34.59,71.12 52.03,61.87 63.86,61.87 C63.89,61.87 63.93,61.87 63.96,61.87 L63.96,61.87 C79.99,61.94 93.15,74.4 93.52,91.29 C93.68,98.81 90.6,106.7 84.56,112.64 C78.92,118.17 71.44,121.13 64.53,121.13 Z M63.84,65.19 C53.23,65.19 37.54,73.87 37.5,91.07 C37.47,103.93 47.43,117.15 64.02,117.71 C70.34,117.91 76.85,115.49 82.11,110.32 C87.57,104.95 90.64,98.03 90.53,91.33 C90.27,76.8 78.39,65.24 63.97,65.17 C63.95,65.17 63.87,65.19 63.84,65.19 Z" fill="#9B9B9D"/>
  <path d="M58.09,61.47 C57.4,60.52 50.33,60.79 42.72,67.34 C35.16,73.85 34.03,81.05 35.39,81.43 C36.94,81.86 38.83,74.9 45.36,69.05 C51.36,63.7 59.46,63.36 58.09,61.47 Z" fill="#FEFFFA"/>
  <path d="M87.88,87.72 C85.47,88.06 87.97,95.28 82.38,103.36 C77.53,110.37 72.03,112.91 72.67,114.45 C73.53,116.51 82.34,111.38 86.42,103.02 C90.11,95.46 89.67,87.47 87.88,87.72 Z" fill="#FEFFFA"/>
  <path d="M25.51,3.72 C24.88,4.3 48.97,47.2 48.97,47.2 C48.97,47.2 53.01,47.72 62.03,47.8 C71.05,47.88 75.52,47.28 75.52,47.28 C75.52,47.28 56.79,4.15 55.67,3.72 C55.12,3.5 47.7,3.42 40.45,3.34 C33.19,3.25 26.11,3.16 25.51,3.72 Z" fill="#2E9DF4"/>
  <path d="M56.85,86.35 C57.89,86.36 58.82,84.95 59.68,84.09 C61.51,82.25 63.43,80.79 65.62,82.77 C71,87.66 60.2,92.62 56.1,99.4 C53.04,104.46 52.42,108.35 53.27,109.39 C54.12,110.43 74.81,110.38 75.09,109.86 C75.37,109.34 75.66,102.41 75.18,102.08 C74.7,101.75 64.53,101.94 64.53,101.94 C64.53,101.94 65.38,99.96 68.87,96.94 C72.7,93.63 75.77,89.08 74.95,83.7 C73.25,72.58 62.05,72.17 57.2,76.04 C52.47,79.81 53.49,86.31 56.85,86.35 Z" fill="#9B9B9D"/>
</svg>
